src/icons/outline/symbols/tags.svg

<svg width="24" height="24" viewBox="0 0 24 24" fill="none" xmlns="http://www.w3.org/2000/svg">
<g clip-path="url(#clip0_4787_363)">
<path d="M12.7275 22.999L12.7324 23H12.7227L12.7275 22.999Z" fill="#3C3B44"/>
<path d="M6.12988 7.67676C6.73735 7.67676 7.23039 8.16892 7.23047 8.77637C7.23047 9.38388 6.7374 9.87695 6.12988 9.87695C5.52255 9.87674 5.03027 9.38375 5.03027 8.77637C5.03035 8.16905 5.5226 7.67697 6.12988 7.67676Z" fill="#3C3B44"/>
<path fill-rule="evenodd" clip-rule="evenodd" d="M9.2041 3.80664C9.787 3.80676 10.36 4.03384 10.7793 4.4375L20.2812 13.5859C20.7006 13.9897 20.9365 14.5314 20.9365 15.1025C20.9365 15.6736 20.7006 16.2154 20.2812 16.6191L14.3076 22.3701C14.1031 22.5669 13.858 22.7247 13.582 22.833C13.3074 22.9407 13.0224 22.9983 12.7275 22.999C12.4328 22.9983 12.1482 22.9407 11.8838 22.833C11.6076 22.7247 11.3618 22.5671 11.1572 22.3701L1.6543 13.2217C1.44978 13.0149 1.28634 12.7883 1.17383 12.5225C1.06134 12.2566 1.00004 11.9807 1 11.7051V5.9541C1 5.38309 1.23514 4.84122 1.6543 4.4375C2.07358 4.03384 2.63637 3.80675 3.22949 3.80664H9.2041ZM3.24023 5.29395C3.05611 5.29395 2.882 5.36319 2.74902 5.49121C2.6162 5.6192 2.54492 5.78672 2.54492 5.96387V11.7148C2.54495 11.8034 2.56504 11.892 2.5957 11.9707C2.62639 12.0495 2.67743 12.1284 2.74902 12.1875L12.2412 21.3262C12.3026 21.3853 12.385 21.4342 12.4668 21.4736C12.6305 21.5426 12.8251 21.5426 12.999 21.4736C13.0807 21.4441 13.1522 21.395 13.2236 21.3262L19.1973 15.5752C19.3302 15.4472 19.4023 15.2797 19.4023 15.1025C19.4023 14.9253 19.3302 14.7579 19.1973 14.6299L9.69434 5.48145C9.59449 5.38532 9.47186 5.32221 9.33887 5.29688L9.2041 5.28418H3.22949L3.24023 5.29395Z" fill="#3C3B44"/>
<path d="M11.4023 1C11.9852 1 12.5582 1.22637 12.9775 1.62988L22.7773 11.0645C23.074 11.35 23.074 11.8228 22.7773 12.1084C22.624 12.2561 22.4296 12.3252 22.2354 12.3252C22.0411 12.3252 21.8468 12.256 21.6934 12.1084L11.8936 2.67383C11.7938 2.57787 11.6709 2.51557 11.5381 2.49023L11.4023 2.47754H4.70312C4.28374 2.47754 3.93555 2.14204 3.93555 1.73828C3.93572 1.33466 4.28384 1 4.70312 1H11.4023Z" fill="#3C3B44"/>
</g>
<defs>
<clipPath id="clip0_4787_363">
<rect width="24" height="24" fill="white"/>
</clipPath>
</defs>
</svg>

<svg xmlns="http://www.w3.org/2000/svg" width="24" height="24" fill="none" viewBox="0 0 24 24"><g fill="currentColor" clip-path="url(#a)"><path d="m12.728 22.999.004.001h-.01zM6.13 7.677a1.1 1.1 0 1 1 0 2.2 1.1 1.1 0 0 1 0-2.2"/><path fill-rule="evenodd" d="M9.204 3.807c.583 0 1.156.227 1.575.63l9.502 9.149a2.1 2.1 0 0 1 .656 1.516 2.1 2.1 0 0 1-.656 1.517l-5.973 5.751c-.205.197-.45.355-.726.463a2.24 2.24 0 0 1-1.698 0 2.2 2.2 0 0 1-.727-.463l-9.503-9.148a2.2 2.2 0 0 1-.48-.7A2.1 2.1 0 0 1 1 11.706v-5.75a2.1 2.1 0 0 1 .654-1.517c.42-.404.982-.631 1.575-.631zM3.24 5.294a.7.7 0 0 0-.491.197.65.65 0 0 0-.204.473v5.75c0 .09.02.178.05.257s.082.157.154.216l9.492 9.14a.9.9 0 0 0 .226.147.71.71 0 0 0 .757-.148l5.973-5.75a.65.65 0 0 0 .205-.474.65.65 0 0 0-.205-.472L9.694 5.48a.7.7 0 0 0-.355-.184l-.135-.013H3.23z" clip-rule="evenodd"/><path d="M11.402 1c.583 0 1.156.226 1.576.63l9.8 9.435a.723.723 0 0 1 0 1.043.77.77 0 0 1-.543.217.77.77 0 0 1-.542-.217l-9.8-9.434a.7.7 0 0 0-.355-.184l-.136-.012H4.703c-.42 0-.767-.336-.767-.74S4.284 1 4.703 1z"/></g><defs><clipPath id="a"><path fill="currentColor" d="M0 0h24v24H0z"/></clipPath></defs></svg>
